Sources/FrostedUI/Resources/Icons.xcassets/downloadDocument24.imageset/download-document-24.svg

<svg width="24" height="24" viewBox="0 0 24 24" fill="none" xmlns="http://www.w3.org/2000/svg" data-fui-icon="true">
  <path
    d="M11.9131 1.25C12.6924 1.25 13.4434 1.55328 13.999 2.09766L19.8789 7.8584C20.4349 8.40327 20.75 9.14571 20.75 9.92285V19.8379C20.75 21.4606 19.4115 22.75 17.793 22.75H6.20703C4.58856 22.75 3.25003 21.4607 3.25 19.8379V4.16211C3.25003 2.53939 4.58855 1.25 6.20703 1.25H11.9131ZM6.20703 2.75C5.38787 2.75 4.75003 3.39662 4.75 4.16211V19.8379C4.75003 20.6034 5.38787 21.25 6.20703 21.25H17.793C18.6122 21.25 19.25 20.6034 19.25 19.8379V9.92285C19.25 9.87416 19.2473 9.82543 19.2422 9.77734H15.0342C13.4159 9.77718 12.0774 8.4877 12.0771 6.86523V2.75879C12.0231 2.75287 11.9681 2.75 11.9131 2.75H6.20703ZM12.2588 10.75C12.6729 10.7501 13.0088 11.0858 13.0088 11.5V16.1279L14.0684 15.0684C14.3612 14.7759 14.8361 14.7759 15.1289 15.0684C15.4217 15.3611 15.4215 15.836 15.1289 16.1289L12.9551 18.3027C12.5157 18.7421 11.8036 18.742 11.3643 18.3027L9.36328 16.3027C9.07042 16.0099 9.07049 15.5351 9.36328 15.2422C9.65617 14.9493 10.1309 14.9493 10.4238 15.2422L11.5088 16.3271V11.5C11.5088 11.0858 11.8446 10.75 12.2588 10.75ZM13.5771 6.86523C13.5774 7.6305 14.2153 8.27718 15.0342 8.27734H18.1631L13.5771 3.7832V6.86523Z"
    fill="currentColor"
  />
</svg>

<svg xmlns="http://www.w3.org/2000/svg" width="24" height="24" fill="none" data-fui-icon="true" viewBox="0 0 24 24"><path fill="currentColor" d="M11.913 1.25c.78 0 1.53.303 2.086.848l5.88 5.76a2.9 2.9 0 0 1 .871 2.065v9.915c0 1.623-1.338 2.912-2.957 2.912H6.207c-1.618 0-2.957-1.29-2.957-2.912V4.162c0-1.623 1.339-2.912 2.957-2.912zm-5.706 1.5c-.82 0-1.457.647-1.457 1.412v15.676c0 .765.638 1.412 1.457 1.412h11.586c.82 0 1.457-.647 1.457-1.412V9.923q0-.074-.008-.146h-4.208c-1.618 0-2.957-1.29-2.957-2.912V2.76a2 2 0 0 0-.164-.009zm6.052 8a.75.75 0 0 1 .75.75v4.628l1.06-1.06a.75.75 0 0 1 1.06 1.06l-2.174 2.175c-.44.44-1.151.439-1.59 0l-2.002-2a.75.75 0 0 1 1.06-1.06l1.086 1.084V11.5a.75.75 0 0 1 .75-.75m1.318-3.885c0 .765.638 1.412 1.457 1.412h3.13l-4.587-4.494z"/></svg>
